svgs/duotone/square-arrow-left.svg

<svg xmlns="http://www.w3.org/2000/svg" viewBox="0 0 448 512"><!-- Font Awesome Pro 6.0.0-alpha2 by @fontawesome - https://fontawesome.com License - https://fontawesome.com/license (Commercial License) --><defs><style>.fa-secondary{opacity:.4}</style></defs><path d="M384 32H64C28.654 32 0 60.656 0 96V416C0 451.344 28.654 480 64 480H384C419.346 480 448 451.344 448 416V96C448 60.656 419.346 32 384 32ZM352 288H173.25L222.625 337.375C235.125 349.875 235.125 370.125 222.625 382.625S189.875 395.125 177.375 382.625L73.398 278.648C65.4 270.664 64 260.898 64 256C64 251.117 65.391 241.344 73.398 233.352L177.375 129.375C189.875 116.875 210.125 116.875 222.625 129.375S235.125 162.125 222.625 174.625L173.25 224H352C369.688 224 384 238.328 384 256S369.688 288 352 288Z" class="fa-secondary"/><path d="M352 288H173.25L222.625 337.375C235.125 349.875 235.125 370.125 222.625 382.625S189.875 395.125 177.375 382.625L73.398 278.648C65.4 270.664 64 260.898 64 256C64 251.117 65.391 241.344 73.398 233.352L177.375 129.375C189.875 116.875 210.125 116.875 222.625 129.375S235.125 162.125 222.625 174.625L173.25 224H352C369.688 224 384 238.328 384 256S369.688 288 352 288Z" class="fa-primary"/></svg>

<svg xmlns="http://www.w3.org/2000/svg" viewBox="0 0 448 512"><!--! Font Awesome Pro 6.3.0 by @fontawesome - https://fontawesome.com License - https://fontawesome.com/license (Commercial License) Copyright 2023 Fonticons, Inc. --><defs><style>.fa-secondary{opacity:.4}</style></defs><path class="fa-primary" d="M352 288H173.3l49.38 49.38c12.5 12.5 12.5 32.75 0 45.25s-32.75 12.5-45.25 0L73.4 278.6C65.4 270.7 64 260.9 64 256c0-4.883 1.391-14.66 9.398-22.65l103.1-103.1c12.5-12.5 32.75-12.5 45.25 0s12.5 32.75 0 45.25L173.3 224H352c17.69 0 32 14.33 32 32S369.7 288 352 288z"/><path class="fa-secondary" d="M384 32H64C28.65 32 0 60.66 0 96v320c0 35.34 28.65 64 64 64h320c35.35 0 64-28.66 64-64V96C448 60.66 419.3 32 384 32zM352 288H173.3l49.38 49.38c12.5 12.5 12.5 32.75 0 45.25s-32.75 12.5-45.25 0L73.4 278.6C65.4 270.7 64 260.9 64 256c0-4.883 1.391-14.66 9.398-22.65l103.1-103.1c12.5-12.5 32.75-12.5 45.25 0s12.5 32.75 0 45.25L173.3 224H352c17.69 0 32 14.33 32 32S369.7 288 352 288z"/></svg>
